X: 13551
T: Floyd To Ke Anlong
R: reel
M: 4/4
K: Adorian
|:AGEG ~A2 e2|dBAG ~A3 B|AGED ~E2 AB|AGAB dBAG|
A6 e2|dBAB d2 Bd|1 egg/g/g edBG|AGEG ~A2 BG:|2 AGEG dBAG|A3 A- Aega||
|:bagd egg/g/g|ageg BAA/A/A|GAAe dBAG|DEEG AGAB|
AGAB e2 AG|ABdB gedB|AGAB dBAG|1 A3 A- Aega:|2 A3 A- A2 B2||

